X: 2
T: The Drumshambo
R: jig
M: 6/8
L: 1/8
K: Emin
BAB G2A|Beg edc|BAB BcB|AFD dAF|
GEF G2A|Beg edc|BAB GAB|AFD EGE|
EB,E GAc|Beg edc|BAB GAB|AFD dAF|
GEF G2A|Beg edc|BAB GAB|AFD E2e||
|:gfe fed|Bee Bee|g2e fed|Beg edB|
gbg fed|Bee Bee|gfe fed|1 BAF E2e:|2 Beg edc||

